dist/img/svg/isource-icon-04.svg

<svg viewBox="0 0 137 29" fill="#000000" xmlns="http://www.w3.org/2000/svg"><path d="M8.977 9.075h8.939v8.972h-8.94V9.075Z"/><path fill-rule="evenodd" clip-rule="evenodd" d="M0 .083h26.874V27H0V.083Zm5.972 8.991h.019v8.972h-.019v2.991h14.93V6.083H5.972v2.991Z"/><path d="M35.12 20.925v5.593h1.433v-5.593H35.12ZM35.12 18.981v1.331h1.433v-1.33H35.12ZM42.321 22.61c-.197-1.29-1.297-1.83-2.46-1.83-1.204 0-2.284.665-2.284 1.663 0 1.02.696 1.456 1.744 1.674l.83.177c.489.114.914.27.914.686 0 .406-.384.634-1.007.634-.747 0-1.12-.405-1.204-.946h-1.38c.135 1.28 1.173 1.986 2.543 1.986 1.266 0 2.418-.686 2.418-1.809 0-1.154-.944-1.435-2.055-1.684l-.747-.167c-.53-.114-.748-.343-.748-.644 0-.343.374-.54.903-.54.665 0 1.08.332 1.194.8h1.34Z"/><path fill-rule="evenodd" clip-rule="evenodd" d="M48.614 23.732c0 1.955-1.39 2.922-2.802 2.922-1.412 0-2.803-.967-2.803-2.922 0-1.965 1.39-2.931 2.803-2.931 1.411 0 2.802.966 2.802 2.931Zm-1.453 0c0-1.174-.56-1.809-1.35-1.809-.788 0-1.349.635-1.349 1.81 0 1.174.56 1.798 1.35 1.798.788 0 1.349-.624 1.349-1.799Z"/><path d="M52.96 26.518h1.433v-5.593h-1.432v2.911c0 .884-.208 1.664-1.163 1.664-.8 0-.913-.603-.913-1.352v-3.223h-1.433v3.535c0 1.372.54 2.194 1.879 2.194.695 0 1.308-.302 1.63-.874v.738ZM58.724 20.942l.15.014v1.352c-.207-.031-.383-.031-.59-.031-.707 0-1.174.26-1.174 1.31v2.931h-1.432v-5.593h1.411v.977c.322-.696.82-.966 1.474-.966.048 0 .105.002.161.006ZM62.05 20.8c-1.67 0-2.802 1.227-2.802 2.932 0 1.695 1.07 2.922 2.74 2.922 1.163 0 2.315-.51 2.647-2.038h-1.37c-.197.666-.706.925-1.204.925-.789 0-1.35-.655-1.35-1.83 0-1.164.592-1.798 1.34-1.798.55 0 1.048.385 1.162.925h1.37c-.197-1.383-1.36-2.038-2.532-2.038Z"/><path fill-rule="evenodd" clip-rule="evenodd" d="M67.98 20.8c1.724 0 2.793 1.342 2.74 3.317H66.6c.083.956.726 1.424 1.412 1.424.446 0 .882-.156 1.172-.644h1.475c-.302.832-1.111 1.757-2.637 1.757-1.796 0-2.844-1.341-2.844-2.953 0-1.663 1.152-2.9 2.802-2.9Zm1.287 2.33c-.03-.947-.695-1.28-1.297-1.28-.54 0-1.235.333-1.35 1.28h2.647Z"/><path d="M34.528 13.542h8.706v-2.05H36.85V7.603h5.223v-2.05H36.85V2.05h6.384V0h-8.706v13.542ZM49.01 13.542h.89V11.57h-.483c-.89 0-1.335-.445-1.335-1.451V0h-2.244v10.35c0 2.05 1.141 3.192 3.173 3.192ZM55.9 13.716c2.71 0 4.064-1.354 4.45-3.173H58.03c-.194.639-.755 1.2-2.128 1.2-1.374 0-2.186-.677-2.302-2.283h6.848v-.755c0-3.192-1.741-5.01-4.546-5.01-2.767 0-4.547 1.78-4.547 4.7v.62c0 2.921 1.78 4.701 4.547 4.701Zm0-8.048c1.316 0 2.09.58 2.264 2.012h-4.527c.194-1.393.968-2.012 2.264-2.012ZM62.963 13.542h2.244V7.835c.039-1.219.89-2.05 2.031-2.05 1.123 0 1.858.734 1.858 2.147v5.61h2.244v-5.61c0-1.277.87-2.148 2.031-2.148 1.142 0 1.857.716 1.857 2.148v5.61h2.245v-5.61c0-2.806-1.432-4.237-3.618-4.237-1.354 0-2.477.56-3.154 1.567-.619-1.025-1.663-1.567-2.979-1.567-1.16 0-2.147.445-2.825 1.238l-.174-1.064h-1.76v9.673ZM84.437 13.716c2.709 0 4.063-1.354 4.45-3.173h-2.322c-.193.639-.754 1.2-2.128 1.2s-2.186-.677-2.302-2.283h6.849v-.755c0-3.192-1.742-5.01-4.547-5.01-2.766 0-4.546 1.78-4.546 4.7v.62c0 2.921 1.78 4.701 4.546 4.701Zm0-8.048c1.316 0 2.09.58 2.264 2.012h-4.527c.193-1.393.967-2.012 2.263-2.012ZM91.5 13.542h2.244V7.835c.039-1.219.91-2.05 2.302-2.05 1.18 0 1.916.734 1.916 2.147v5.61h2.244v-5.61c0-2.825-1.413-4.237-3.773-4.237-1.257 0-2.302.445-2.998 1.257L93.26 3.87H91.5v9.673ZM101.857 5.843h1.742v4.507c0 2.051 1.141 3.192 3.192 3.192h1.644V11.57h-1.238c-.909 0-1.354-.445-1.354-1.45V5.842h2.399V3.869h-2.399V1.161h-2.244v2.708h-1.742v1.974Z"/></svg>

<svg width="109" height="27" viewBox="0 0 109 27" fill="none" xmlns="http://www.w3.org/2000/svg">
<path d="M8.97701 9.075H17.916V18.047H8.97601V9.075H8.97701Z" fill="#1400DC"/>
<path fill-rule="evenodd" clip-rule="evenodd" d="M0 0.0829926H26.874V27H0V0.0829926ZM5.972 9.07399H5.991V18.046H5.972V21.037H20.902V6.08299H5.972V9.07399Z" fill="#1400DC"/>
<path d="M35.12 20.925V26.518H36.553V20.925H35.12ZM35.12 18.981V20.312H36.553V18.982H35.12V18.981ZM42.321 22.61C42.124 21.32 41.024 20.78 39.861 20.78C38.657 20.78 37.577 21.445 37.577 22.443C37.577 23.463 38.273 23.899 39.321 24.117L40.151 24.294C40.64 24.408 41.065 24.564 41.065 24.98C41.065 25.386 40.681 25.614 40.058 25.614C39.311 25.614 38.938 25.209 38.854 24.668H37.474C37.609 25.948 38.647 26.654 40.017 26.654C41.283 26.654 42.435 25.968 42.435 24.845C42.435 23.691 41.491 23.41 40.38 23.161L39.633 22.994C39.103 22.88 38.885 22.651 38.885 22.35C38.885 22.007 39.259 21.81 39.788 21.81C40.453 21.81 40.868 22.142 40.982 22.61H42.322H42.321Z" fill="#1400DC"/>
<path fill-rule="evenodd" clip-rule="evenodd" d="M48.614 23.732C48.614 25.687 47.224 26.654 45.812 26.654C44.4 26.654 43.009 25.687 43.009 23.732C43.009 21.767 44.399 20.801 45.812 20.801C47.223 20.801 48.614 21.767 48.614 23.732ZM47.161 23.732C47.161 22.558 46.601 21.923 45.811 21.923C45.023 21.923 44.462 22.558 44.462 23.733C44.462 24.907 45.022 25.531 45.812 25.531C46.6 25.531 47.161 24.907 47.161 23.732Z" fill="#1400DC"/>
<path d="M52.96 26.518H54.393V20.925H52.961V23.836C52.961 24.72 52.753 25.5 51.798 25.5C50.998 25.5 50.885 24.897 50.885 24.148V20.925H49.452V24.46C49.452 25.832 49.992 26.654 51.331 26.654C52.026 26.654 52.639 26.352 52.961 25.78V26.518H52.96ZM58.724 20.942L58.874 20.956V22.308C58.667 22.277 58.491 22.277 58.284 22.277C57.577 22.277 57.11 22.537 57.11 23.587V26.518H55.678V20.925H57.089V21.902C57.411 21.206 57.909 20.936 58.563 20.936C58.611 20.936 58.668 20.938 58.724 20.942ZM62.05 20.8C60.38 20.8 59.248 22.027 59.248 23.732C59.248 25.427 60.318 26.654 61.988 26.654C63.151 26.654 64.303 26.144 64.635 24.616H63.265C63.068 25.282 62.559 25.541 62.061 25.541C61.272 25.541 60.711 24.886 60.711 23.711C60.711 22.547 61.303 21.913 62.051 21.913C62.601 21.913 63.099 22.298 63.213 22.838H64.583C64.386 21.455 63.223 20.8 62.051 20.8H62.05Z" fill="#1400DC"/>
<path fill-rule="evenodd" clip-rule="evenodd" d="M67.98 20.8C69.704 20.8 70.773 22.142 70.72 24.117H66.6C66.683 25.073 67.326 25.541 68.012 25.541C68.458 25.541 68.894 25.385 69.184 24.897H70.659C70.357 25.729 69.548 26.654 68.022 26.654C66.226 26.654 65.178 25.313 65.178 23.701C65.178 22.038 66.33 20.801 67.98 20.801V20.8ZM69.267 23.13C69.237 22.183 68.572 21.85 67.97 21.85C67.43 21.85 66.735 22.183 66.62 23.13H69.267Z" fill="#1400DC"/>
<path d="M34.528 13.542H43.234V11.492H36.85V7.603H42.073V5.553H36.85V2.05H43.234V0H34.528V13.542ZM49.01 13.542H49.9V11.57H49.417C48.527 11.57 48.082 11.125 48.082 10.119V0H45.838V10.35C45.838 12.4 46.979 13.542 49.011 13.542H49.01ZM55.9 13.716C58.61 13.716 59.964 12.362 60.35 10.543H58.03C57.836 11.182 57.275 11.743 55.902 11.743C54.528 11.743 53.716 11.066 53.6 9.46H60.448V8.705C60.448 5.513 58.707 3.695 55.902 3.695C53.135 3.695 51.355 5.475 51.355 8.395V9.015C51.355 11.936 53.135 13.716 55.902 13.716H55.9ZM55.9 5.668C57.216 5.668 57.99 6.248 58.164 7.68H53.637C53.831 6.287 54.605 5.668 55.901 5.668H55.9ZM62.963 13.542H65.207V7.835C65.246 6.616 66.097 5.785 67.238 5.785C68.361 5.785 69.096 6.519 69.096 7.932V13.542H71.34V7.932C71.34 6.655 72.21 5.784 73.371 5.784C74.513 5.784 75.228 6.5 75.228 7.932V13.542H77.473V7.932C77.473 5.126 76.041 3.695 73.855 3.695C72.501 3.695 71.378 4.255 70.701 5.262C70.082 4.237 69.038 3.695 67.722 3.695C66.562 3.695 65.575 4.14 64.897 4.933L64.723 3.869H62.963V13.542ZM84.437 13.716C87.146 13.716 88.5 12.362 88.887 10.543H86.565C86.372 11.182 85.811 11.743 84.437 11.743C83.063 11.743 82.251 11.066 82.135 9.46H88.984V8.705C88.984 5.513 87.242 3.695 84.437 3.695C81.671 3.695 79.891 5.475 79.891 8.395V9.015C79.891 11.936 81.671 13.716 84.437 13.716ZM84.437 5.668C85.753 5.668 86.527 6.248 86.701 7.68H82.174C82.367 6.287 83.141 5.668 84.437 5.668ZM91.5 13.542H93.744V7.835C93.783 6.616 94.654 5.785 96.046 5.785C97.226 5.785 97.962 6.519 97.962 7.932V13.542H100.206V7.932C100.206 5.107 98.793 3.695 96.433 3.695C95.176 3.695 94.131 4.14 93.435 4.952L93.26 3.87H91.5V13.543V13.542ZM101.857 5.843H103.599V10.35C103.599 12.401 104.74 13.542 106.791 13.542H108.435V11.57H107.197C106.288 11.57 105.843 11.125 105.843 10.12V5.842H108.242V3.869H105.843V1.161H103.599V3.869H101.857V5.843Z" fill="#1400DC"/>
</svg>
